X: 40677
T: Toper's Double, The
R: jig
M: 6/8
K: Gmajor
BEE BEE|BAG FED|ADD ADD|AGF EFG|
BEE BEE|DFA d3|ed^c BcA|BEE E3:|
efe ed^c|def g3|fdd add|fdd add|
efe ed^c|def g3|ed^c BcA|BEE E3:|

